Dominus_Dark_Funeral/symbolic/actions/address-book-new-symbolic.svg

<svg xmlns="http://www.w3.org/2000/svg" version="1" viewBox="0 0 24 24"><path fill="gray" d="M3.611 1.01c-.85 0-1.533.685-1.533 1.535v18.398c0 .85.684 1.534 1.533 1.534h9.2v-1.55l-7.666.016V2.545h13.033c.424 0 .765.34.765.766v9.955h1.534V2.545c0-.85-.684-1.535-1.534-1.535H3.611zm5.412 4.644a.25.25 0 0 0-.212.198c-.004.022-.111.545-.036 1.17.107.858.506 1.491 1.159 1.83h.002c-.054.564.042 1.16-.137 1.709-.16.57 0 1.177.414 1.59.356.447.793 1.031.549 1.632-.353.676-1.054 1.073-1.692 1.434a2.592 2.592 0 0 0-.566.326c-.163.046-.291.17-.291.346v1.605a.38.38 0 0 0 .383.383h4.19a1.56 1.56 0 0 1 1.558-1.55h1.508v-.815c-.847-.457-1.794-.903-2.268-1.795-.163-.709.334-1.328.771-1.82.431-.548.262-1.27.112-1.883-.037-.392.007-.822-.035-1.225.594-.35.967-.953 1.068-1.768.076-.624-.03-1.147-.033-1.17a.252.252 0 0 0-.215-.197.251.251 0 0 0-.254.14c-.006.015-.686 1.394-1.764 1.618a3.92 3.92 0 0 0-1.207-.266h-.002a1.975 1.975 0 0 0-1.052.243c-1.036-.27-1.69-1.58-1.696-1.594a.251.251 0 0 0-.254-.14zm8.387 9.172v3.06h-3.066v3.042l3.066.021v3.06h3.067v-3.06h3.066v-3.062h-3.066v-3.06H17.41z" style="isolation:auto;mix-blend-mode:normal"/></svg>

<?xml version="1.0" encoding="UTF-8" standalone="no"?>
<svg
   xmlns:dc="http://purl.org/dc/elements/1.1/"
   xmlns:cc="http://creativecommons.org/ns#"
   xmlns:rdf="http://www.w3.org/1999/02/22-rdf-syntax-ns#"
   xmlns:svg="http://www.w3.org/2000/svg"
   xmlns="http://www.w3.org/2000/svg"
   xmlns:sodipodi="http://sodipodi.sourceforge.net/DTD/sodipodi-0.dtd"
   xmlns:inkscape="http://www.inkscape.org/namespaces/inkscape"
   version="1"
   viewBox="0 0 24 24"
   id="svg4"
   sodipodi:docname="address-book-new-symbolic.svg"
   inkscape:version="0.92.4 (5da689c313, 2019-01-14)">
  <metadata
     id="metadata10">
    <rdf:RDF>
      <cc:Work
         rdf:about="">
        <dc:format>image/svg+xml</dc:format>
        <dc:type
           rdf:resource="http://purl.org/dc/dcmitype/StillImage" />
        <dc:title></dc:title>
      </cc:Work>
    </rdf:RDF>
  </metadata>
  <defs
     id="defs8" />
  <sodipodi:namedview
     pagecolor="#ffffff"
     bordercolor="#666666"
     borderopacity="1"
     objecttolerance="10"
     gridtolerance="10"
     guidetolerance="10"
     inkscape:pageopacity="0"
     inkscape:pageshadow="2"
     inkscape:window-width="1112"
     inkscape:window-height="480"
     id="namedview6"
     showgrid="false"
     inkscape:zoom="9.8333333"
     inkscape:cx="1.0677966"
     inkscape:cy="12"
     inkscape:window-x="0"
     inkscape:window-y="25"
     inkscape:window-maximized="0"
     inkscape:current-layer="svg4" />
  <path
     d="m 3.611,1.01 c -0.85,0 -1.533,0.685 -1.533,1.535 v 18.398 c 0,0.85 0.684,1.534 1.533,1.534 h 9.2 v -1.55 L 5.145,20.943 V 2.545 h 13.033 c 0.424,0 0.765,0.34 0.765,0.766 v 9.955 h 1.534 V 2.545 c 0,-0.85 -0.684,-1.535 -1.534,-1.535 z M 9.023,5.654 A 0.25,0.25 0 0 0 8.811,5.852 C 8.807,5.874 8.7,6.397 8.775,7.022 8.882,7.88 9.281,8.513 9.934,8.852 h 0.002 c -0.054,0.564 0.042,1.16 -0.137,1.709 -0.16,0.57 0,1.177 0.414,1.59 0.356,0.447 0.793,1.031 0.549,1.632 -0.353,0.676 -1.054,1.073 -1.692,1.434 a 2.592,2.592 0 0 0 -0.566,0.326 c -0.163,0.046 -0.291,0.17 -0.291,0.346 v 1.605 a 0.38,0.38 0 0 0 0.383,0.383 h 4.19 a 1.56,1.56 0 0 1 1.558,-1.55 h 1.508 v -0.815 c -0.847,-0.457 -1.794,-0.903 -2.268,-1.795 -0.163,-0.709 0.334,-1.328 0.771,-1.82 0.431,-0.548 0.262,-1.27 0.112,-1.883 C 14.43,9.622 14.474,9.192 14.432,8.789 15.026,8.439 15.399,7.836 15.5,7.021 15.576,6.397 15.47,5.874 15.467,5.851 A 0.252,0.252 0 0 0 15.252,5.654 0.251,0.251 0 0 0 14.998,5.794 C 14.992,5.809 14.312,7.188 13.234,7.412 A 3.92,3.92 0 0 0 12.027,7.146 H 12.025 A 1.975,1.975 0 0 0 10.973,7.389 C 9.937,7.119 9.283,5.809 9.277,5.795 A 0.251,0.251 0 0 0 9.023,5.655 Z m 8.387,9.172 v 3.06 h -3.066 v 3.042 l 3.066,0.021 v 3.06 h 3.067 v -3.06 h 3.066 v -3.062 h -3.066 v -3.06 H 17.41 Z"
     style="isolation:auto;mix-blend-mode:normal;fill:#808080"
     id="path2"
     inkscape:connector-curvature="0" />
</svg>
